icons/italic-24.svg

<svg width="24" height="24" viewBox="0 0 24 24" xmlns="http://www.w3.org/2000/svg">
  <path fill-rule="evenodd" clip-rule="evenodd" d="M10 4.75C10 4.33579 10.3358 4 10.75 4H19.25C19.6642 4 20 4.33579 20 4.75C20 5.16421 19.6642 5.5 19.25 5.5H15.7357L9.90812 18.5H13.25C13.6642 18.5 14 18.8358 14 19.25C14 19.6642 13.6642 20 13.25 20H4.75C4.33579 20 4 19.6642 4 19.25C4 18.8358 4.33579 18.5 4.75 18.5H8.2643L14.0919 5.5H10.75C10.3358 5.5 10 5.16421 10 4.75Z"/>
</svg>

<svg xmlns="http://www.w3.org/2000/svg" width="24" height="24" viewBox="0 0 24 24"><path fill-rule="evenodd" d="M10 4.75a.75.75 0 01.75-.75h8.5a.75.75 0 010 1.5h-3.514l-5.828 13h3.342a.75.75 0 010 1.5h-8.5a.75.75 0 010-1.5h3.514l5.828-13H10.75a.75.75 0 01-.75-.75z"/></svg>
